src/16/actions/shapes.svg

<svg xmlns="http://www.w3.org/2000/svg" width="16" height="16"><defs><style id="current-color-scheme" type="text/css"></style></defs><path d="M3.5 1A2.5 2.5 0 0 0 1 3.5 2.5 2.5 0 0 0 3.5 6 2.5 2.5 0 0 0 6 3.5 2.5 2.5 0 0 0 3.5 1zM10 1v5h5V1h-5zM2 9v6h3V9H2zm10 0l-3 6h6l-3-6z" fill="currentColor" color="#565656"/></svg>

<svg xmlns="http://www.w3.org/2000/svg" width="16" height="16" viewBox="0 0 16 16">
 <defs>
  <style id="current-color-scheme" type="text/css">
   .ColorScheme-Text { color:#565656; } .ColorScheme-Highlight { color:#5294e2; }
  </style>
 </defs>
 <path style="fill:currentColor" class="ColorScheme-Text" d="M 3.5 1 A 2.5 2.5 0 0 0 1 3.5 A 2.5 2.5 0 0 0 3.5 6 A 2.5 2.5 0 0 0 6 3.5 A 2.5 2.5 0 0 0 3.5 1 z M 10 1 L 10 6 L 15 6 L 15 1 L 10 1 z M 2 9 L 2 15 L 5 15 L 5 9 L 2 9 z M 12 9 L 9 15 L 15 15 L 12 9 z"/>
</svg>
